images/37331.svg

<?xml version="1.0" encoding="UTF-8"?>
<svg xmlns="http://www.w3.org/2000/svg" xmlns:xlink="http://www.w3.org/1999/xlink" width="300pt" height="300pt" viewBox="0 0 300 300" version="1.1">
<defs>
<g>
<symbol overflow="visible" id="glyph0-0">
<path style="stroke:none;" d="M 0.453125 1.59375 L 0.453125 -6.34375 L 4.953125 -6.34375 L 4.953125 1.59375 Z M 0.953125 1.09375 L 4.453125 1.09375 L 4.453125 -5.84375 L 0.953125 -5.84375 Z M 0.953125 1.09375 "/>
</symbol>
<symbol overflow="visible" id="glyph0-1">
<path style="stroke:none;" d="M 3.546875 -5.953125 C 2.898438 -5.953125 2.382812 -5.710938 2 -5.234375 C 1.625 -4.753906 1.4375 -4.101562 1.4375 -3.28125 C 1.4375 -2.445312 1.625 -1.789062 2 -1.3125 C 2.382812 -0.832031 2.898438 -0.59375 3.546875 -0.59375 C 4.191406 -0.59375 4.703125 -0.832031 5.078125 -1.3125 C 5.453125 -1.789062 5.640625 -2.445312 5.640625 -3.28125 C 5.640625 -4.101562 5.453125 -4.753906 5.078125 -5.234375 C 4.703125 -5.710938 4.191406 -5.953125 3.546875 -5.953125 Z M 3.546875 -6.6875 C 4.460938 -6.6875 5.195312 -6.375 5.75 -5.75 C 6.300781 -5.132812 6.578125 -4.3125 6.578125 -3.28125 C 6.578125 -2.238281 6.300781 -1.410156 5.75 -0.796875 C 5.195312 -0.179688 4.460938 0.125 3.546875 0.125 C 2.617188 0.125 1.878906 -0.179688 1.328125 -0.796875 C 0.773438 -1.410156 0.5 -2.238281 0.5 -3.28125 C 0.5 -4.3125 0.773438 -5.132812 1.328125 -5.75 C 1.878906 -6.375 2.617188 -6.6875 3.546875 -6.6875 Z M 3.546875 -6.6875 "/>
</symbol>
<symbol overflow="visible" id="glyph0-2">
<path style="stroke:none;" d="M 0.890625 -6.5625 L 2.078125 -6.5625 L 4.984375 -1.078125 L 4.984375 -6.5625 L 5.84375 -6.5625 L 5.84375 0 L 4.65625 0 L 1.75 -5.484375 L 1.75 0 L 0.890625 0 Z M 0.890625 -6.5625 "/>
</symbol>
<symbol overflow="visible" id="glyph0-3">
<path style="stroke:none;" d="M 0.890625 -6.5625 L 1.765625 -6.5625 L 1.765625 -3.875 L 5 -3.875 L 5 -6.5625 L 5.890625 -6.5625 L 5.890625 0 L 5 0 L 5 -3.125 L 1.765625 -3.125 L 1.765625 0 L 0.890625 0 Z M 0.890625 -6.5625 "/>
</symbol>
<symbol overflow="visible" id="glyph1-0">
<path style="stroke:none;" d="M 0.40625 1.421875 L 0.40625 -5.640625 L 4.40625 -5.640625 L 4.40625 1.421875 Z M 0.84375 0.96875 L 3.953125 0.96875 L 3.953125 -5.1875 L 0.84375 -5.1875 Z M 0.84375 0.96875 "/>
</symbol>
<symbol overflow="visible" id="glyph1-1">
<path style="stroke:none;" d="M 3.6875 -5.015625 L 3.6875 -2.84375 L 5.859375 -2.84375 L 5.859375 -2.171875 L 3.6875 -2.171875 L 3.6875 0 L 3.03125 0 L 3.03125 -2.171875 L 0.84375 -2.171875 L 0.84375 -2.84375 L 3.03125 -2.84375 L 3.03125 -5.015625 Z M 3.6875 -5.015625 "/>
</symbol>
</g>
</defs>
<g id="surface14425">
<rect x="0" y="0" width="300" height="300" style="fill:rgb(100%,100%,100%);fill-opacity:1;stroke:none;"/>
<path style="fill:none;stroke-width:1.2;stroke-linecap:butt;stroke-linejoin:miter;stroke:rgb(100%,0%,0%);stroke-opacity:1;stroke-miterlimit:10;" d="M 103.648438 126.523438 L 104.921875 137.121094 "/>
<path style="fill:none;stroke-width:1.2;stroke-linecap:butt;stroke-linejoin:miter;stroke:rgb(0%,0%,0%);stroke-opacity:1;stroke-miterlimit:10;" d="M 104.921875 137.121094 L 106.195312 147.722656 "/>
<path style="fill:none;stroke-width:1.2;stroke-linecap:butt;stroke-linejoin:miter;stroke:rgb(100%,0%,0%);stroke-opacity:1;stroke-miterlimit:10;" d="M 108.636719 125.921875 L 109.910156 136.523438 "/>
<path style="fill:none;stroke-width:1.2;stroke-linecap:butt;stroke-linejoin:miter;stroke:rgb(0%,0%,0%);stroke-opacity:1;stroke-miterlimit:10;" d="M 109.910156 136.523438 L 111.183594 147.125 "/>
<path style=" stroke:none;fill-rule:nonzero;fill:rgb(100%,100%,100%);fill-opacity:1;" d="M 102.140625 120.722656 L 110.140625 120.722656 L 110.140625 131.722656 L 102.140625 131.722656 Z M 102.140625 120.722656 "/>
<g style="fill:rgb(100%,0%,0%);fill-opacity:1;">
  <use xlink:href="#glyph0-1" x="102.140625" y="129.385742"/>
</g>
<path style="fill:none;stroke-width:1.2;stroke-linecap:butt;stroke-linejoin:miter;stroke:rgb(0%,0%,0%);stroke-opacity:1;stroke-miterlimit:10;" d="M 108.6875 147.421875 L 100.144531 153.828125 "/>
<path style="fill:none;stroke-width:1.2;stroke-linecap:butt;stroke-linejoin:miter;stroke:rgb(0%,0%,100%);stroke-opacity:1;stroke-miterlimit:10;" d="M 100.144531 153.828125 L 91.601562 160.230469 "/>
<path style="fill:none;stroke-width:1.2;stroke-linecap:butt;stroke-linejoin:miter;stroke:rgb(0%,0%,0%);stroke-opacity:1;stroke-miterlimit:10;" d="M 108.6875 147.421875 L 128.320312 155.816406 "/>
<path style="fill:none;stroke-width:1.2;stroke-linecap:butt;stroke-linejoin:miter;stroke:rgb(0%,0%,100%);stroke-opacity:1;stroke-miterlimit:10;" d="M 91.601562 160.230469 L 81.785156 156.03125 "/>
<path style="fill:none;stroke-width:1.2;stroke-linecap:butt;stroke-linejoin:miter;stroke:rgb(0%,0%,0%);stroke-opacity:1;stroke-miterlimit:10;" d="M 81.785156 156.03125 L 71.96875 151.835938 "/>
<path style=" stroke:none;fill-rule:nonzero;fill:rgb(100%,100%,100%);fill-opacity:1;" d="M 84.601562 154.730469 L 98.601562 154.730469 L 98.601562 165.730469 L 84.601562 165.730469 Z M 84.601562 154.730469 "/>
<g style="fill:rgb(0%,0%,100%);fill-opacity:1;">
  <use xlink:href="#glyph0-2" x="84.601562" y="163.393555"/>
  <use xlink:href="#glyph0-3" x="91.579102" y="163.393555"/>
</g>
<path style="fill:none;stroke-width:1.2;stroke-linecap:butt;stroke-linejoin:miter;stroke:rgb(0%,0%,0%);stroke-opacity:1;stroke-miterlimit:10;" d="M 71.96875 151.835938 L 54.882812 164.640625 "/>
<path style="fill:none;stroke-width:1.2;stroke-linecap:butt;stroke-linejoin:miter;stroke:rgb(0%,0%,0%);stroke-opacity:1;stroke-miterlimit:10;" d="M 54.882812 164.640625 L 35.25 156.25 "/>
<path style="fill:none;stroke-width:1.2;stroke-linecap:butt;stroke-linejoin:miter;stroke:rgb(0%,0%,0%);stroke-opacity:1;stroke-miterlimit:10;" d="M 128.320312 155.816406 L 133.070312 176.632812 "/>
<path style="fill:none;stroke-width:1.2;stroke-linecap:butt;stroke-linejoin:miter;stroke:rgb(0%,0%,0%);stroke-opacity:1;stroke-miterlimit:10;" d="M 133.695312 156.78125 L 137.496094 173.433594 "/>
<path style="fill:none;stroke-width:1.2;stroke-linecap:butt;stroke-linejoin:miter;stroke:rgb(0%,0%,0%);stroke-opacity:1;stroke-miterlimit:10;" d="M 146.652344 144.867188 L 128.320312 155.816406 "/>
<path style="fill:none;stroke-width:1.2;stroke-linecap:butt;stroke-linejoin:miter;stroke:rgb(0%,0%,0%);stroke-opacity:1;stroke-miterlimit:10;" d="M 133.070312 176.632812 L 143.703125 177.59375 "/>
<path style="fill:none;stroke-width:1.2;stroke-linecap:butt;stroke-linejoin:miter;stroke:rgb(0%,0%,100%);stroke-opacity:1;stroke-miterlimit:10;" d="M 143.703125 177.59375 L 154.339844 178.550781 "/>
<path style="fill:none;stroke-width:1.2;stroke-linecap:butt;stroke-linejoin:miter;stroke:rgb(0%,0%,100%);stroke-opacity:1;stroke-miterlimit:10;" d="M 154.339844 178.550781 L 167.144531 195.636719 "/>
<path style="fill:none;stroke-width:1.2;stroke-linecap:butt;stroke-linejoin:miter;stroke:rgb(0%,0%,0%);stroke-opacity:1;stroke-miterlimit:10;" d="M 162.730469 158.917969 L 158.535156 168.734375 "/>
<path style="fill:none;stroke-width:1.2;stroke-linecap:butt;stroke-linejoin:miter;stroke:rgb(0%,0%,100%);stroke-opacity:1;stroke-miterlimit:10;" d="M 158.535156 168.734375 L 154.339844 178.550781 "/>
<path style=" stroke:none;fill-rule:nonzero;fill:rgb(100%,100%,100%);fill-opacity:1;" d="M 151.339844 173.050781 L 158.339844 173.050781 L 158.339844 184.050781 L 151.339844 184.050781 Z M 151.339844 173.050781 "/>
<g style="fill:rgb(0%,0%,100%);fill-opacity:1;">
  <use xlink:href="#glyph0-2" x="151.339844" y="181.713867"/>
</g>
<path style="fill:none;stroke-width:1.2;stroke-linecap:butt;stroke-linejoin:miter;stroke:rgb(0%,0%,100%);stroke-opacity:1;stroke-miterlimit:10;" d="M 167.144531 195.636719 L 177.742188 194.363281 "/>
<path style="fill:none;stroke-width:1.2;stroke-linecap:butt;stroke-linejoin:miter;stroke:rgb(0%,0%,0%);stroke-opacity:1;stroke-miterlimit:10;" d="M 177.742188 194.363281 L 188.34375 193.089844 "/>
<path style="fill:none;stroke-width:1.2;stroke-linecap:butt;stroke-linejoin:miter;stroke:rgb(0%,0%,100%);stroke-opacity:1;stroke-miterlimit:10;" d="M 168.664062 190.394531 L 177.144531 189.375 "/>
<path style="fill:none;stroke-width:1.2;stroke-linecap:butt;stroke-linejoin:miter;stroke:rgb(0%,0%,0%);stroke-opacity:1;stroke-miterlimit:10;" d="M 177.144531 189.375 L 185.625 188.355469 "/>
<path style=" stroke:none;fill-rule:nonzero;fill:rgb(100%,100%,100%);fill-opacity:1;" d="M 164.144531 190.136719 L 171.144531 190.136719 L 171.144531 201.136719 L 164.144531 201.136719 Z M 164.144531 190.136719 "/>
<g style="fill:rgb(0%,0%,100%);fill-opacity:1;">
  <use xlink:href="#glyph0-2" x="164.144531" y="198.799805"/>
</g>
<path style="fill:none;stroke-width:1.2;stroke-linecap:butt;stroke-linejoin:miter;stroke:rgb(0%,0%,0%);stroke-opacity:1;stroke-miterlimit:10;" d="M 188.34375 193.089844 L 192.539062 183.273438 "/>
<path style="fill:none;stroke-width:1.2;stroke-linecap:butt;stroke-linejoin:miter;stroke:rgb(0%,0%,100%);stroke-opacity:1;stroke-miterlimit:10;" d="M 192.539062 183.273438 L 196.738281 173.453125 "/>
<path style="fill:none;stroke-width:1.2;stroke-linecap:butt;stroke-linejoin:miter;stroke:rgb(0%,0%,100%);stroke-opacity:1;stroke-miterlimit:10;" d="M 196.738281 173.453125 L 190.335938 164.910156 "/>
<path style="fill:none;stroke-width:1.2;stroke-linecap:butt;stroke-linejoin:miter;stroke:rgb(0%,0%,0%);stroke-opacity:1;stroke-miterlimit:10;" d="M 190.335938 164.910156 L 183.929688 156.367188 "/>
<path style="fill:none;stroke-width:1.2;stroke-linecap:butt;stroke-linejoin:miter;stroke:rgb(0%,0%,100%);stroke-opacity:1;stroke-miterlimit:10;" d="M 191.4375 174.757812 L 186.3125 167.925781 "/>
<path style="fill:none;stroke-width:1.2;stroke-linecap:butt;stroke-linejoin:miter;stroke:rgb(0%,0%,0%);stroke-opacity:1;stroke-miterlimit:10;" d="M 186.3125 167.925781 L 181.191406 161.089844 "/>
<path style=" stroke:none;fill-rule:nonzero;fill:rgb(100%,100%,100%);fill-opacity:1;" d="M 186.738281 165.953125 L 207.738281 165.953125 L 207.738281 180.953125 L 186.738281 180.953125 Z M 186.738281 165.953125 "/>
<g style="fill:rgb(0%,0%,100%);fill-opacity:1;">
  <use xlink:href="#glyph0-2" x="186.738281" y="178.054688"/>
  <use xlink:href="#glyph0-3" x="193.71582" y="178.054688"/>
</g>
<g style="fill:rgb(0%,0%,100%);fill-opacity:1;">
  <use xlink:href="#glyph1-1" x="200.730469" y="173.171875"/>
</g>
<path style="fill:none;stroke-width:1.2;stroke-linecap:butt;stroke-linejoin:miter;stroke:rgb(0%,0%,0%);stroke-opacity:1;stroke-miterlimit:10;" d="M 183.929688 156.367188 L 188.128906 146.550781 "/>
<path style="fill:none;stroke-width:1.2;stroke-linecap:butt;stroke-linejoin:miter;stroke:rgb(0%,0%,100%);stroke-opacity:1;stroke-miterlimit:10;" d="M 188.128906 146.550781 L 192.324219 136.734375 "/>
<path style="fill:none;stroke-width:1.2;stroke-linecap:butt;stroke-linejoin:miter;stroke:rgb(0%,0%,0%);stroke-opacity:1;stroke-miterlimit:10;" d="M 183.929688 156.367188 L 162.730469 158.917969 "/>
<path style="fill:none;stroke-width:1.2;stroke-linecap:butt;stroke-linejoin:miter;stroke:rgb(0%,0%,100%);stroke-opacity:1;stroke-miterlimit:10;" d="M 192.324219 136.734375 L 202.925781 135.460938 "/>
<path style="fill:none;stroke-width:1.2;stroke-linecap:butt;stroke-linejoin:miter;stroke:rgb(0%,0%,0%);stroke-opacity:1;stroke-miterlimit:10;" d="M 202.925781 135.460938 L 213.523438 134.1875 "/>
<path style=" stroke:none;fill-rule:nonzero;fill:rgb(100%,100%,100%);fill-opacity:1;" d="M 185.324219 131.234375 L 199.324219 131.234375 L 199.324219 142.234375 L 185.324219 142.234375 Z M 185.324219 131.234375 "/>
<g style="fill:rgb(0%,0%,100%);fill-opacity:1;">
  <use xlink:href="#glyph0-2" x="185.324219" y="139.897461"/>
  <use xlink:href="#glyph0-3" x="192.301758" y="139.897461"/>
</g>
<path style="fill:none;stroke-width:1.2;stroke-linecap:butt;stroke-linejoin:miter;stroke:rgb(0%,0%,0%);stroke-opacity:1;stroke-miterlimit:10;" d="M 213.523438 134.1875 L 226.332031 151.273438 "/>
<path style="fill:none;stroke-width:1.2;stroke-linecap:butt;stroke-linejoin:miter;stroke:rgb(0%,0%,0%);stroke-opacity:1;stroke-miterlimit:10;" d="M 218.824219 132.882812 L 229.070312 146.550781 "/>
<path style="fill:none;stroke-width:1.2;stroke-linecap:butt;stroke-linejoin:miter;stroke:rgb(0%,0%,0%);stroke-opacity:1;stroke-miterlimit:10;" d="M 221.917969 114.554688 L 213.523438 134.1875 "/>
<path style="fill:none;stroke-width:1.2;stroke-linecap:butt;stroke-linejoin:miter;stroke:rgb(0%,0%,0%);stroke-opacity:1;stroke-miterlimit:10;" d="M 226.332031 151.273438 L 247.53125 148.726562 "/>
<path style="fill:none;stroke-width:1.2;stroke-linecap:butt;stroke-linejoin:miter;stroke:rgb(0%,0%,0%);stroke-opacity:1;stroke-miterlimit:10;" d="M 247.53125 148.726562 L 253.933594 157.269531 "/>
<path style="fill:none;stroke-width:1.2;stroke-linecap:butt;stroke-linejoin:miter;stroke:rgb(0%,0%,100%);stroke-opacity:1;stroke-miterlimit:10;" d="M 253.933594 157.269531 L 260.335938 165.8125 "/>
<path style="fill:none;stroke-width:1.2;stroke-linecap:butt;stroke-linejoin:miter;stroke:rgb(0%,0%,0%);stroke-opacity:1;stroke-miterlimit:10;" d="M 247.53125 148.726562 L 255.925781 129.09375 "/>
<path style="fill:none;stroke-width:1.2;stroke-linecap:butt;stroke-linejoin:miter;stroke:rgb(0%,0%,0%);stroke-opacity:1;stroke-miterlimit:10;" d="M 243.75 144.789062 L 250.464844 129.082031 "/>
<path style="fill:none;stroke-width:1.2;stroke-linecap:butt;stroke-linejoin:miter;stroke:rgb(0%,0%,100%);stroke-opacity:1;stroke-miterlimit:10;" d="M 260.335938 165.8125 L 256.140625 175.628906 "/>
<path style="fill:none;stroke-width:1.2;stroke-linecap:butt;stroke-linejoin:miter;stroke:rgb(0%,0%,0%);stroke-opacity:1;stroke-miterlimit:10;" d="M 256.140625 175.628906 L 251.945312 185.445312 "/>
<path style=" stroke:none;fill-rule:nonzero;fill:rgb(100%,100%,100%);fill-opacity:1;" d="M 253.335938 160.3125 L 267.335938 160.3125 L 267.335938 171.3125 L 253.335938 171.3125 Z M 253.335938 160.3125 "/>
<g style="fill:rgb(0%,0%,100%);fill-opacity:1;">
  <use xlink:href="#glyph0-2" x="253.335938" y="168.975586"/>
  <use xlink:href="#glyph0-3" x="260.313477" y="168.975586"/>
</g>
<path style="fill:none;stroke-width:1.2;stroke-linecap:butt;stroke-linejoin:miter;stroke:rgb(0%,0%,0%);stroke-opacity:1;stroke-miterlimit:10;" d="M 251.644531 182.953125 L 241.042969 184.226562 "/>
<path style="fill:none;stroke-width:1.2;stroke-linecap:butt;stroke-linejoin:miter;stroke:rgb(100%,0%,0%);stroke-opacity:1;stroke-miterlimit:10;" d="M 241.042969 184.226562 L 230.445312 185.5 "/>
<path style="fill:none;stroke-width:1.2;stroke-linecap:butt;stroke-linejoin:miter;stroke:rgb(0%,0%,0%);stroke-opacity:1;stroke-miterlimit:10;" d="M 252.242188 187.941406 L 241.644531 189.214844 "/>
<path style="fill:none;stroke-width:1.2;stroke-linecap:butt;stroke-linejoin:miter;stroke:rgb(100%,0%,0%);stroke-opacity:1;stroke-miterlimit:10;" d="M 241.644531 189.214844 L 231.042969 190.488281 "/>
<path style="fill:none;stroke-width:1.2;stroke-linecap:butt;stroke-linejoin:miter;stroke:rgb(0%,0%,0%);stroke-opacity:1;stroke-miterlimit:10;" d="M 251.945312 185.445312 L 264.75 202.53125 "/>
<path style=" stroke:none;fill-rule:nonzero;fill:rgb(100%,100%,100%);fill-opacity:1;" d="M 222.742188 182.492188 L 230.742188 182.492188 L 230.742188 193.492188 L 222.742188 193.492188 Z M 222.742188 182.492188 "/>
<g style="fill:rgb(100%,0%,0%);fill-opacity:1;">
  <use xlink:href="#glyph0-1" x="222.742188" y="191.155273"/>
</g>
<path style="fill:none;stroke-width:1.2;stroke-linecap:butt;stroke-linejoin:miter;stroke:rgb(0%,0%,0%);stroke-opacity:1;stroke-miterlimit:10;" d="M 255.925781 129.09375 L 243.117188 112.007812 "/>
<path style="fill:none;stroke-width:1.2;stroke-linecap:butt;stroke-linejoin:miter;stroke:rgb(0%,0%,0%);stroke-opacity:1;stroke-miterlimit:10;" d="M 243.117188 112.007812 L 221.917969 114.554688 "/>
<path style="fill:none;stroke-width:1.2;stroke-linecap:butt;stroke-linejoin:miter;stroke:rgb(0%,0%,0%);stroke-opacity:1;stroke-miterlimit:10;" d="M 241.597656 117.25 L 224.636719 119.289062 "/>
<path style="fill:none;stroke-width:1.2;stroke-linecap:butt;stroke-linejoin:miter;stroke:rgb(0%,0%,0%);stroke-opacity:1;stroke-miterlimit:10;" d="M 221.917969 114.554688 L 209.113281 97.46875 "/>
<path style="fill:none;stroke-width:1.2;stroke-linecap:butt;stroke-linejoin:miter;stroke:rgb(0%,0%,0%);stroke-opacity:1;stroke-miterlimit:10;" d="M 162.730469 158.917969 L 146.652344 144.867188 "/>
<path style="fill:none;stroke-width:1.2;stroke-linecap:butt;stroke-linejoin:miter;stroke:rgb(0%,0%,0%);stroke-opacity:1;stroke-miterlimit:10;" d="M 157.816406 161.292969 L 144.953125 150.054688 "/>
<path style="fill:none;stroke-width:1.2;stroke-linecap:butt;stroke-linejoin:miter;stroke:rgb(0%,0%,0%);stroke-opacity:1;stroke-miterlimit:10;" d="M 146.652344 144.867188 L 148.570312 123.601562 "/>
</g>
</svg>

<svg xmlns="http://www.w3.org/2000/svg" xmlns:xlink="http://www.w3.org/1999/xlink" width="300pt" height="300pt" viewBox="0 0 300 300"><defs><symbol overflow="visible"><path d="M.453 1.594v-7.938h4.5v7.938zm.5-.5h3.5v-6.938h-3.5zm0 0"/></symbol><symbol overflow="visible" id="a"><path d="M3.547-5.953c-.65 0-1.164.242-1.547.72-.375.48-.563 1.13-.563 1.952 0 .835.188 1.49.563 1.967.383.48.898.72 1.547.72.644 0 1.156-.24 1.53-.72.376-.476.564-1.132.564-1.968 0-.822-.187-1.474-.562-1.954-.375-.477-.887-.72-1.53-.72zm0-.734c.914 0 1.648.312 2.203.937.55.617.828 1.438.828 2.47 0 1.042-.277 1.87-.828 2.483-.555.617-1.29.922-2.203.922-.93 0-1.668-.305-2.22-.922C.774-1.41.5-2.237.5-3.28c0-1.033.273-1.853.828-2.47.55-.625 1.29-.938 2.22-.938zm0 0"/></symbol><symbol overflow="visible" id="b"><path d="M.89-6.563H2.08l2.906 5.485v-5.484h.86V0H4.656L1.75-5.484V0H.89zm0 0"/></symbol><symbol overflow="visible" id="c"><path d="M.89-6.563h.876v2.688H5v-2.688h.89V0H5v-3.125H1.766V0H.89zm0 0"/></symbol><symbol overflow="visible"><path d="M.406 1.422V-5.64h4V1.42zM.844.97h3.11v-6.157H.843zm0 0"/></symbol><symbol overflow="visible" id="d"><path d="M3.688-5.016v2.172h2.17v.672H3.69V0H3.03v-2.172H.845v-.672H3.03v-2.172zm0 0"/></symbol></defs><g><path fill="#fff" d="M0 0h300v300H0z"/><path d="M103.648 126.523l1.274 10.598" stroke-width="1.2" stroke="#f00" stroke-miterlimit="10" fill="none"/><path d="M104.922 137.12l1.273 10.603" stroke-width="1.2" stroke="#000" stroke-miterlimit="10" fill="none"/><path d="M108.637 125.922l1.273 10.6" stroke-width="1.2" stroke="#f00" stroke-miterlimit="10" fill="none"/><path d="M109.91 136.523l1.274 10.602" stroke-width="1.2" stroke="#000" stroke-miterlimit="10" fill="none"/><path d="M102.14 120.723h8v11h-8zm0 0" fill="#fff"/><use xlink:href="#a" x="102.141" y="129.386" fill="#f00"/><path d="M108.688 147.422l-8.543 6.406" stroke-width="1.2" stroke="#000" stroke-miterlimit="10" fill="none"/><path d="M100.145 153.828l-8.543 6.402" stroke-width="1.2" stroke="#00f" stroke-miterlimit="10" fill="none"/><path d="M108.688 147.422l19.632 8.394" stroke-width="1.2" stroke="#000" stroke-miterlimit="10" fill="none"/><path d="M91.602 160.23l-9.817-4.2" stroke-width="1.2" stroke="#00f" stroke-miterlimit="10" fill="none"/><path d="M81.785 156.03l-9.816-4.194" stroke-width="1.2" stroke="#000" stroke-miterlimit="10" fill="none"/><path d="M84.602 154.73h14v11h-14zm0 0" fill="#fff"/><g fill="#00f"><use xlink:href="#b" x="84.602" y="163.394"/><use xlink:href="#c" x="91.579" y="163.394"/></g><path d="M71.97 151.836L54.882 164.64M54.883 164.64l-19.633-8.39M128.32 155.816l4.75 20.817M133.695 156.78l3.8 16.654M146.652 144.867l-18.332 10.95M133.07 176.633l10.633.96" stroke-width="1.2" stroke="#000" stroke-miterlimit="10" fill="none"/><path d="M143.703 177.594l10.637.957M154.34 178.55l12.805 17.087" stroke-width="1.2" stroke="#00f" stroke-miterlimit="10" fill="none"/><path d="M162.73 158.918l-4.195 9.816" stroke-width="1.2" stroke="#000" stroke-miterlimit="10" fill="none"/><path d="M158.535 168.734l-4.195 9.817" stroke-width="1.2" stroke="#00f" stroke-miterlimit="10" fill="none"/><path d="M151.34 173.05h7v11h-7zm0 0" fill="#fff"/><use xlink:href="#b" x="151.34" y="181.714" fill="#00f"/><path d="M167.145 195.637l10.597-1.274" stroke-width="1.2" stroke="#00f" stroke-miterlimit="10" fill="none"/><path d="M177.742 194.363l10.602-1.273" stroke-width="1.2" stroke="#000" stroke-miterlimit="10" fill="none"/><path d="M168.664 190.395l8.48-1.02" stroke-width="1.2" stroke="#00f" stroke-miterlimit="10" fill="none"/><path d="M177.145 189.375l8.48-1.02" stroke-width="1.2" stroke="#000" stroke-miterlimit="10" fill="none"/><path d="M164.145 190.137h7v11h-7zm0 0" fill="#fff"/><use xlink:href="#b" x="164.145" y="198.8" fill="#00f"/><path d="M188.344 193.09l4.195-9.817" stroke-width="1.2" stroke="#000" stroke-miterlimit="10" fill="none"/><path d="M192.54 183.273l4.198-9.82M196.738 173.453l-6.402-8.543" stroke-width="1.2" stroke="#00f" stroke-miterlimit="10" fill="none"/><path d="M190.336 164.91l-6.406-8.543" stroke-width="1.2" stroke="#000" stroke-miterlimit="10" fill="none"/><path d="M191.438 174.758l-5.125-6.832" stroke-width="1.2" stroke="#00f" stroke-miterlimit="10" fill="none"/><path d="M186.313 167.926l-5.122-6.836" stroke-width="1.2" stroke="#000" stroke-miterlimit="10" fill="none"/><path d="M186.738 165.953h21v15h-21zm0 0" fill="#fff"/><g fill="#00f"><use xlink:href="#b" x="186.738" y="178.055"/><use xlink:href="#c" x="193.716" y="178.055"/></g><use xlink:href="#d" x="200.73" y="173.172" fill="#00f"/><path d="M183.93 156.367l4.2-9.816" stroke-width="1.2" stroke="#000" stroke-miterlimit="10" fill="none"/><path d="M188.13 146.55l4.194-9.816" stroke-width="1.2" stroke="#00f" stroke-miterlimit="10" fill="none"/><path d="M183.93 156.367l-21.2 2.55" stroke-width="1.2" stroke="#000" stroke-miterlimit="10" fill="none"/><path d="M192.324 136.734l10.602-1.273" stroke-width="1.2" stroke="#00f" stroke-miterlimit="10" fill="none"/><path d="M202.926 135.46l10.597-1.273" stroke-width="1.2" stroke="#000" stroke-miterlimit="10" fill="none"/><path d="M185.324 131.234h14v11h-14zm0 0" fill="#fff"/><g fill="#00f"><use xlink:href="#b" x="185.324" y="139.897"/><use xlink:href="#c" x="192.302" y="139.897"/></g><path d="M213.523 134.188l12.81 17.085M218.824 132.883l10.246 13.668M221.918 114.555l-8.395 19.632M226.332 151.273l21.2-2.546M247.53 148.727l6.404 8.543" stroke-width="1.2" stroke="#000" stroke-miterlimit="10" fill="none"/><path d="M253.934 157.27l6.402 8.542" stroke-width="1.2" stroke="#00f" stroke-miterlimit="10" fill="none"/><path d="M247.53 148.727l8.396-19.633M243.75 144.79l6.715-15.708" stroke-width="1.2" stroke="#000" stroke-miterlimit="10" fill="none"/><path d="M260.336 165.813l-4.195 9.816" stroke-width="1.2" stroke="#00f" stroke-miterlimit="10" fill="none"/><path d="M256.14 175.63l-4.195 9.815" stroke-width="1.2" stroke="#000" stroke-miterlimit="10" fill="none"/><path d="M253.336 160.313h14v11h-14zm0 0" fill="#fff"/><g fill="#00f"><use xlink:href="#b" x="253.336" y="168.976"/><use xlink:href="#c" x="260.313" y="168.976"/></g><path d="M251.645 182.953l-10.602 1.274" stroke-width="1.2" stroke="#000" stroke-miterlimit="10" fill="none"/><path d="M241.043 184.227l-10.598 1.273" stroke-width="1.2" stroke="#f00" stroke-miterlimit="10" fill="none"/><path d="M252.242 187.94l-10.597 1.275" stroke-width="1.2" stroke="#000" stroke-miterlimit="10" fill="none"/><path d="M241.645 189.215l-10.602 1.273" stroke-width="1.2" stroke="#f00" stroke-miterlimit="10" fill="none"/><path d="M251.945 185.445l12.805 17.086" stroke-width="1.2" stroke="#000" stroke-miterlimit="10" fill="none"/><path d="M222.742 182.492h8v11h-8zm0 0" fill="#fff"/><use xlink:href="#a" x="222.742" y="191.155" fill="#f00"/><path d="M255.926 129.094l-12.81-17.086M243.117 112.008l-21.2 2.547M241.598 117.25l-16.96 2.04M221.918 114.555L209.113 97.47M162.73 158.918l-16.078-14.05M157.816 161.293l-12.863-11.238M146.652 144.867l1.918-21.265" stroke-width="1.2" stroke="#000" stroke-miterlimit="10" fill="none"/></g></svg>
